X:1
T:Swiss Boy,The. JMT.001
M:2/4
L:1/16
Q:1/4=100
S:John Moore,Tyneside,1841,(01a)
R:.Country dance
O:England
A:Northumbria
H:1841
Z:vmp.John Adams
K:C
EF | G2E>F G2E>F | G2e>d c2 G2 | A2f>e d2e>d | c4 E3F |!
G2E>F G2E>F | G2e>d c2 G2 | F2f>d d2e>d | ” cr”c6 ||!
G2 | F2d>c B2 G2 | G2e>d c2 G2 | F2d>c B2 G2 | G2e>d c2 EF |!
G2E>F G2E>F | G2e>d c2 G2 | G2f>e d2e>d |” cr” c6|]

